X:261
T:Quinn's Reel 2
T:Sean Quinn's
B:CRE2.171 (RÃÂÃÂÃÂÃÂ­l UÃÂÃÂÃÂÃÂ­ Chuinn [b])
F:file ID: cre.2/261quinn_R2
R:reel
M:C
Q:180
K:D
D2FA BAFA|dfed BEE2|DEFA BAFA|dBAG FAAF|
D2FA BAFA|dfed BEE2|D2FA BAFA|1 dBAG FDD2:|\
[2 dBAG FDFA||
|:d2fd Adef|g2fg eBB2|d2fd Adf2|afeg fdd/c/d|
d2fd Adef|g2fg eBBA|fgfe dcdB|1 ABAG FDD2:|\
[2 (3ABc AG FAd2|]

%%%

